X:111
T:Dutch Ship
S:John Moore's Book 2
Z:Transcribed by Steve Mansfield 05/2021
%%VWML: Moore2-4494-p85-0
F:http://www.vwml.org/record/Moore2/4494/p85
M:6/8
L:1/8
K:C
G2G GAB | G2G GAB | A2A ABc | BAG FED | 
G2G GAB | G2 G2 G2 | Bcd edc | d3 d3 :| 
|: FED FED | A2A ABc | BAG BAG | c2c cde | 
dcB AGF | G3 G3 :| 

